actions/scalable/view-restore.svg

<?xml version="1.0" encoding="UTF-8" standalone="no"?>
<!-- Created with Inkscape (http://www.inkscape.org/) -->

<svg
   xmlns:dc="http://purl.org/dc/elements/1.1/"
   xmlns:cc="http://creativecommons.org/ns#"
   xmlns:rdf="http://www.w3.org/1999/02/22-rdf-syntax-ns#"
   xmlns:svg="http://www.w3.org/2000/svg"
   xmlns="http://www.w3.org/2000/svg"
   xmlns:sodipodi="http://sodipodi.sourceforge.net/DTD/sodipodi-0.dtd"
   xmlns:inkscape="http://www.inkscape.org/namespaces/inkscape"
   width="22"
   height="22"
   id="svg4355"
   version="1.1"
   inkscape:version="0.48+devel r"
   sodipodi:docname="view-restore.svg">
  <defs
     id="defs4357" />
  <sodipodi:namedview
     id="base"
     pagecolor="#ffffff"
     bordercolor="#666666"
     borderopacity="1.0"
     inkscape:pageopacity="0.0"
     inkscape:pageshadow="2"
     inkscape:zoom="23.388096"
     inkscape:cx="3.8619346"
     inkscape:cy="11.395197"
     inkscape:document-units="px"
     inkscape:current-layer="layer1"
     showgrid="true"
     width="0px"
     height="0px"
     fit-margin-top="0"
     fit-margin-left="0"
     fit-margin-right="0"
     fit-margin-bottom="0"
     inkscape:window-width="1366"
     inkscape:window-height="718"
     inkscape:window-x="-2"
     inkscape:window-y="23"
     inkscape:window-maximized="1"
     inkscape:showpageshadow="false">
    <inkscape:grid
       type="xygrid"
       id="grid4119" />
    <sodipodi:guide
       position="2.0000011,19.999996"
       orientation="18,0"
       id="guide4125" />
    <sodipodi:guide
       position="2.0000011,1.9999962"
       orientation="0,18"
       id="guide4127" />
    <sodipodi:guide
       position="20.000001,1.9999962"
       orientation="-18,0"
       id="guide4129" />
    <sodipodi:guide
       position="20.000001,19.999996"
       orientation="0,-18"
       id="guide4131" />
    <sodipodi:guide
       position="3.0000011,18.999996"
       orientation="16,0"
       id="guide4133" />
    <sodipodi:guide
       position="3.0000011,2.9999962"
       orientation="0,16"
       id="guide4135" />
    <sodipodi:guide
       position="19.000001,2.9999962"
       orientation="-16,0"
       id="guide4137" />
    <sodipodi:guide
       position="19.000001,18.999996"
       orientation="0,-16"
       id="guide4139" />
  </sodipodi:namedview>
  <metadata
     id="metadata4360">
    <rdf:RDF>
      <cc:Work
         rdf:about="">
        <dc:format>image/svg+xml</dc:format>
        <dc:type
           rdf:resource="http://purl.org/dc/dcmitype/StillImage" />
        <dc:title />
      </cc:Work>
    </rdf:RDF>
  </metadata>
  <g
     inkscape:label="Capa 1"
     inkscape:groupmode="layer"
     id="layer1"
     transform="translate(-544.57141,-742.93359)">
    <path
       style="opacity:1;fill:#666666;fill-opacity:1;stroke:none"
       d="M 6 6 L 6 9 L 6 15 L 6 16 L 16 16 L 16 15 L 16 6 L 7 6 L 6 6 z M 7 9 L 15 9 L 15 15 L 7 15 L 7 9 z "
       id="path4114"
       transform="translate(544.57141,742.93359)" />
    <path
       style="fill:#666666;fill-opacity:1;fill-rule:evenodd;stroke:none;stroke-width:1px;stroke-linecap:butt;stroke-linejoin:miter;stroke-opacity:1"
       d="m 547.57141,755.93359 2,-2 -2,-2 z"
       id="path4121"
       inkscape:connector-curvature="0" />
    <path
       inkscape:connector-curvature="0"
       id="path4123"
       d="m 563.57141,755.93359 -2,-2 2,-2 z"
       style="fill:#666666;fill-opacity:1;fill-rule:evenodd;stroke:none;stroke-width:1px;stroke-linecap:butt;stroke-linejoin:miter;stroke-opacity:1" />
    <path
       inkscape:connector-curvature="0"
       id="path4125"
       d="m 553.57141,745.93359 2,2 2,-2 z"
       style="fill:#666666;fill-opacity:1;fill-rule:evenodd;stroke:none;stroke-width:1px;stroke-linecap:butt;stroke-linejoin:miter;stroke-opacity:1" />
    <path
       style="fill:#666666;fill-opacity:1;fill-rule:evenodd;stroke:none;stroke-width:1px;stroke-linecap:butt;stroke-linejoin:miter;stroke-opacity:1"
       d="m 553.57141,761.93359 2,-2 2,2 z"
       id="path4127"
       inkscape:connector-curvature="0" />
  </g>
</svg>

<svg height="22" width="22" xmlns="http://www.w3.org/2000/svg" xmlns:sodipodi="http://sodipodi.sourceforge.net/DTD/sodipodi-0.dtd" xmlns:inkscape="http://www.inkscape.org/namespaces/inkscape">
 <g transform="matrix(1 0 0 1 -544.57 -742.93)">
  <path d="m6 6v3 6 1h10v-1-9h-9-1zm1 3h8v6h-8v-6z" fill="#4d4d4d" transform="matrix(1 0 0 1 544.57 742.93)"/>
  <path d="m547.57 755.93 2-2-2-2z" fill="#4d4d4d" fill-rule="evenodd"/>
  <path d="m563.57 755.93-2-2 2-2z" fill="#4d4d4d" fill-rule="evenodd"/>
  <path d="m553.57 745.93 2 2 2-2z" fill="#4d4d4d" fill-rule="evenodd"/>
  <path d="m553.57 761.93 2-2 2 2z" fill="#4d4d4d" fill-rule="evenodd"/>
 </g>
</svg>
